Carto/POI/SVG/airport_solid_24px.svg

<svg width="24" height="24" viewBox="0 0 24 24" fill="none" xmlns="http://www.w3.org/2000/svg">
<path d="M18.39 8.54999L19.32 19.69L17 22L14 12.76C12.2936 14.2865 10.5078 15.7219 8.65 17.06L9.58 20.2L8.65 21.14L6.72 18.25C6.13 18.53 5.72 18.63 5.54 18.46C5.36 18.29 5.47 17.87 5.75 17.29L2.87 15.36L3.81 14.43L6.69 15.72C8.07988 13.7212 9.59281 11.8108 11.22 9.99999L2 6.99999L4.31 4.67999L15.49 5.56999C19.22 2.03999 20.94 1.56999 21.7 2.29999C22.46 3.02999 22 4.78999 18.39 8.54999Z" fill="#0F1621"/>
</svg>

<svg xmlns="http://www.w3.org/2000/svg" width="24" height="24" viewBox="0 0 24 24"><rect width="24" height="24" style="fill:none;opacity:0"/><path d="M18.39,8.55l.93,11.14L17,22l-3-9.24a65,65,0,0,1-5.35,4.3l.93,3.14-.93.94L6.72,18.25c-.59.28-1,.38-1.18.21s-.07-.59.21-1.17L2.87,15.36l.94-.93,2.88,1.29A58.68,58.68,0,0,1,11.22,10L2,7,4.31,4.68l11.18.89c3.73-3.53,5.45-4,6.21-3.27S22,4.79,18.39,8.55Z"/></svg>
